X: 133
T: A Christmas
R: jig
M: 6/8
K: Gmajor
G3 GAB|AGE G3|GAB cBA|G3 GAB|AGE cBA|1 BAG DEF:|2 BAG D2B||
g3 gag|fed g3|gab bag|g3 gag|fed ged|ged dgf|
g3 gag|fed ggg|gab bag|bag ged|edB dBG "to"y!coda!|
AGE DEF:|!coda! AGE DEF|GED EDB,|DB,G, A,B,A,|A,B,C DEF|G6-|G2 [gBD]||

